Sources/MuMenu/Resources/Sky.xcassets/icon.heartbeat.imageset/icon.heartbeat.svg

<?xml version="1.0" encoding="UTF-8"?>
<svg width="1200pt" height="1200pt" version="1.1" viewBox="0 0 1200 1200" xmlns="http://www.w3.org/2000/svg">
 <path d="m599.06 287.53c16.406-15.75 31.453-32.438 48.656-46.359 71.484-56.203 167.06-71.016 252.24-39.141s147.52 105.84 164.53 195.14c8.0156 48.703 4.1719 98.578-11.109 145.5-1.9688 6.5625-5.625 6.9844-11.156 6.9844-61.359-0.14062-122.72 0.046875-184.13-0.23438h0.046875c-7.7812-0.28125-15.328 2.8594-20.578 8.5781-32.672 33.047-65.625 65.719-98.391 98.672-2.5781 3.0938-4.8281 6.3281-6.8438 9.7969-4.7812-4.4531-7.5-6.8438-10.078-9.375-84.656-84.609-169.31-169.22-253.97-253.78-13.688-13.641-17.812-13.641-31.594 0.14063-46.5 46.5-92.953 93.094-139.74 139.26-4.2656 3.9375-9.7969 6.2812-15.609 6.5625-41.016 0.51562-82.031 0.28125-123.1 0.28125-4.6875 0-8.8125 0.75-10.875-5.8125-27.656-89.25-21.938-174.14 33.984-251.72l0.046876-0.046875c47.344-65.016 122.16-104.48 202.6-106.83s157.4 32.625 208.55 94.781c2.2969 2.8125 4.7344 5.5312 6.5156 7.5938z"/>
 <path d="m179.29 618.89h13.781c38.297 0 76.641-0.1875 114.94 0.14062 7.4531 0.28125 14.672-2.7656 19.688-8.2969 38.672-39 77.625-77.719 116.39-116.62 3.1875-3.7969 6.0938-7.7812 8.7656-11.906 2.5781 4.3594 5.5312 8.4844 8.7656 12.422 84.562 84.703 169.18 169.36 253.87 253.92 12.609 12.609 17.391 12.562 30.234-0.23438 40.781-40.734 81.609-81.375 122.16-122.39h-0.046875c4.5938-4.9219 11.109-7.5469 17.812-7.1719 44.391 0.28125 88.781 0.14062 134.63 0.14062-1.6406 3.5156-2.6719 6.1875-4.0312 8.6719h-0.046875c-35.297 62.672-78.938 120.32-129.61 171.42-76.172 79.312-162.14 148.55-255.89 206.06-18 13.172-42.422 13.312-60.516 0.28125-80.438-49.266-155.16-107.25-222.94-172.82-59.625-55.547-111.38-118.92-153.84-188.48-4.6406-7.7344-8.8594-15.703-14.109-25.125z"/>
</svg>

<?xml version="1.0" encoding="UTF-8" standalone="no"?>
<!DOCTYPE svg PUBLIC "-//W3C//DTD SVG 1.1//EN" "http://www.w3.org/Graphics/SVG/1.1/DTD/svg11.dtd">
<svg width="100%" height="100%" viewBox="0 0 1200 1200" version="1.1" xmlns="http://www.w3.org/2000/svg" xmlns:xlink="http://www.w3.org/1999/xlink" xml:space="preserve" xmlns:serif="http://www.serif.com/" style="fill-rule:evenodd;clip-rule:evenodd;stroke-linejoin:round;stroke-miterlimit:2;">
    <path d="M599.06,287.53C615.466,271.78 630.513,255.092 647.716,241.171C719.2,184.968 814.776,170.155 899.956,202.03C985.136,233.905 1047.48,307.87 1064.49,397.17C1072.5,445.873 1068.66,495.748 1053.38,542.67C1051.41,549.233 1047.75,549.654 1042.22,549.654C980.862,549.514 919.501,549.701 858.091,549.42L858.138,549.42C850.357,549.139 842.81,552.279 837.56,557.998C804.888,591.045 771.935,623.717 739.169,656.67C736.591,659.764 734.341,662.998 732.325,666.467C727.544,662.014 724.825,659.623 722.247,657.092C637.591,572.483 552.937,487.872 468.277,403.312C454.589,389.671 450.465,389.671 436.683,403.453C390.183,449.953 343.73,496.547 296.943,542.713C292.677,546.65 287.146,548.994 281.334,549.275C240.318,549.791 199.303,549.556 158.234,549.556C153.547,549.556 149.422,550.306 147.359,543.744C119.703,454.494 125.421,369.604 181.343,292.024L181.39,291.977C228.734,226.961 303.55,187.497 383.99,185.147C464.43,182.797 541.39,217.772 592.54,279.928C594.837,282.741 597.274,285.459 599.056,287.522L599.06,287.53Z" style="fill:white;fill-opacity:0;fill-rule:nonzero;stroke:black;stroke-width:38px;"/>
    <path d="M179.29,618.89L193.071,618.89C231.368,618.89 269.712,618.703 308.011,619.031C315.464,619.312 322.683,616.265 327.699,610.734C366.371,571.734 405.324,533.015 444.089,494.114C447.276,490.317 450.183,486.333 452.855,482.208C455.433,486.567 458.386,490.692 461.62,494.63C546.182,579.333 630.8,663.99 715.49,748.55C728.099,761.159 732.881,761.112 745.724,748.315C786.505,707.581 827.333,666.94 867.884,625.925L867.837,625.925C872.431,621.003 878.946,618.378 885.649,618.753C930.04,619.035 974.43,618.894 1020.28,618.894C1018.64,622.41 1017.61,625.082 1016.25,627.566L1016.2,627.566C980.904,690.238 937.263,747.886 886.591,798.986C810.419,878.298 724.451,947.536 630.701,1005.05C612.701,1018.22 588.279,1018.36 570.185,1005.33C489.747,956.061 415.025,898.077 347.245,832.507C287.62,776.96 235.865,713.587 193.405,644.027C188.765,636.293 184.546,628.324 179.296,618.902L179.29,618.89Z" style="fill:white;fill-opacity:0;fill-rule:nonzero;stroke:black;stroke-width:38px;"/>
</svg>
